presets/tower/antenna.svg

<svg height="14" viewBox="0 0 14 14" width="14" xmlns="http://www.w3.org/2000/svg"><path d="m0 0h14v14h-14z" fill="none" visibility="hidden"/><path d="m4 .40625c-1.76724.7793169-3.03125 2.5458523-3.03125 4.59375 0 2.047898 1.26401 3.814433 3.03125 4.59375v-1.15625c-1.19553-.690791-2-1.9493498-2-3.4375s.80447-2.7467086 2-3.4375zm6 0v1.15625c1.19553.6907914 2 1.9493498 2 3.4375s-.80447 2.746709-2 3.4375v1.15625c1.76724-.779317 3.03125-2.545852 3.03125-4.59375 0-2.0478977-1.26401-3.8144331-3.03125-4.59375zm-5 1.78125c-1.157046.4168642-2 1.5158306-2 2.8125s.842954 2.395636 2 2.8125v-1.09375c-.596919-.3447208-1-.9751803-1-1.71875s.403081-1.3740292 1-1.71875zm4 0v1.09375c.596919.3447208 1 .9751803 1 1.71875s-.403081 1.3740292-1 1.71875v1.09375c1.157046-.416864 2-1.5158306 2-2.8125s-.842954-2.3956358-2-2.8125zm-2 1.8125c-.5977925 0-1 .469217-1 1v9h2v-9c0-.496094-.402207-1-1-1z" fill="#666"/></svg>

<?xml version="1.0" encoding="UTF-8" standalone="no"?>
<!DOCTYPE svg PUBLIC "-//W3C//DTD SVG 1.1//EN" "http://www.w3.org/Graphics/SVG/1.1/DTD/svg11.dtd">
<svg xmlns:dc="http://purl.org/dc/elements/1.1/" xmlns:xl="http://www.w3.org/1999/xlink" version="1.1" xmlns="http://www.w3.org/2000/svg" viewBox="0 0 14 14" width="14" height="14">
  <defs/>
  <g id="Canvas_1" fill-opacity="1" stroke-dasharray="none" stroke="none" stroke-opacity="1" fill="none">
    <title>Canvas 1</title>
    <g id="Canvas_1_Layer_1">
      <title>Layer 1</title>
      <g id="Graphic_2">
        <title>Bézier</title>
      </g>
      <g id="Graphic_3">
        <path d="M 4 .40625 C 2.23276 1.1855669 .96875 2.9521023 .96875 5 C .96875 7.047898 2.23276 8.814433 4 9.59375 L 4 8.4375 C 2.80447 7.746709 2 6.48815 2 5 C 2 3.51185 2.80447 2.2532914 4 1.5625 Z M 10 .40625 L 10 1.5625 C 11.19553 2.2532914 12 3.51185 12 5 C 12 6.48815 11.19553 7.746709 10 8.4375 L 10 9.59375 C 11.76724 8.814433 13.03125 7.047898 13.03125 5 C 13.03125 2.9521023 11.76724 1.1855669 10 .40625 Z M 5 2.1875 C 3.842954 2.6043642 3 3.7033306 3 5 C 3 6.2966694 3.842954 7.395636 5 7.8125 L 5 6.71875 C 4.403081 6.374029 4 5.74357 4 5 C 4 4.2564303 4.403081 3.625971 5 3.28125 Z M 9 2.1875 L 9 3.28125 C 9.596919 3.625971 10 4.2564303 10 5 C 10 5.74357 9.596919 6.374029 9 6.71875 L 9 7.8125 C 10.157046 7.395636 11 6.2966694 11 5 C 11 3.7033306 10.157046 2.6043642 9 2.1875 Z M 7 4 C 6.4022075 4 6 4.469217 6 5 L 6 14 L 8 14 L 8 5 C 8 4.503906 7.597793 4 7 4 Z" fill="#666"/>
        <path d="M 4 .40625 C 2.23276 1.1855669 .96875 2.9521023 .96875 5 C .96875 7.047898 2.23276 8.814433 4 9.59375 L 4 8.4375 C 2.80447 7.746709 2 6.48815 2 5 C 2 3.51185 2.80447 2.2532914 4 1.5625 Z M 10 .40625 L 10 1.5625 C 11.19553 2.2532914 12 3.51185 12 5 C 12 6.48815 11.19553 7.746709 10 8.4375 L 10 9.59375 C 11.76724 8.814433 13.03125 7.047898 13.03125 5 C 13.03125 2.9521023 11.76724 1.1855669 10 .40625 Z M 5 2.1875 C 3.842954 2.6043642 3 3.7033306 3 5 C 3 6.2966694 3.842954 7.395636 5 7.8125 L 5 6.71875 C 4.403081 6.374029 4 5.74357 4 5 C 4 4.2564303 4.403081 3.625971 5 3.28125 Z M 9 2.1875 L 9 3.28125 C 9.596919 3.625971 10 4.2564303 10 5 C 10 5.74357 9.596919 6.374029 9 6.71875 L 9 7.8125 C 10.157046 7.395636 11 6.2966694 11 5 C 11 3.7033306 10.157046 2.6043642 9 2.1875 Z M 7 4 C 6.4022075 4 6 4.469217 6 5 L 6 14 L 8 14 L 8 5 C 8 4.503906 7.597793 4 7 4 Z" stroke="white" stroke-linecap="butt" stroke-linejoin="round" stroke-width="2"/>
      </g>
      <g id="Graphic_4">
        <path d="M 4 .40625 C 2.23276 1.1855669 .96875 2.9521023 .96875 5 C .96875 7.047898 2.23276 8.814433 4 9.59375 L 4 8.4375 C 2.80447 7.746709 2 6.48815 2 5 C 2 3.51185 2.80447 2.2532914 4 1.5625 Z M 10 .40625 L 10 1.5625 C 11.19553 2.2532914 12 3.51185 12 5 C 12 6.48815 11.19553 7.746709 10 8.4375 L 10 9.59375 C 11.76724 8.814433 13.03125 7.047898 13.03125 5 C 13.03125 2.9521023 11.76724 1.1855669 10 .40625 Z M 5 2.1875 C 3.842954 2.6043642 3 3.7033306 3 5 C 3 6.2966694 3.842954 7.395636 5 7.8125 L 5 6.71875 C 4.403081 6.374029 4 5.74357 4 5 C 4 4.2564303 4.403081 3.625971 5 3.28125 Z M 9 2.1875 L 9 3.28125 C 9.596919 3.625971 10 4.2564303 10 5 C 10 5.74357 9.596919 6.374029 9 6.71875 L 9 7.8125 C 10.157046 7.395636 11 6.2966694 11 5 C 11 3.7033306 10.157046 2.6043642 9 2.1875 Z M 7 4 C 6.4022075 4 6 4.469217 6 5 L 6 14 L 8 14 L 8 5 C 8 4.503906 7.597793 4 7 4 Z" fill="#666"/>
      </g>
    </g>
  </g>
</svg>
